X:1
T:Jesu Rex admirabilis
T:Giovanni Pierluigi da Palestrina
T:Source : Secunda anthologia vocalis - O. Ravanello - Torino, Italy Editor : André Vierendeels (17/05/17).
T:Notes : Original Clefs : C4, C4, F4 Transposed one step higher The hymn is part of a longer one, Jesu dulcis memoria (up to 53 stanzas in some manuscripts). This explains the difference in stanzas between various editions.   
T:Jesu Rex admirabilis
T:©
T:©
C:Giovanni Pierluigi da Palestrina
Z:©
%%score [ 1 2 3 ]
L:1/8
Q:1/4=120
M:4/4
K:G
V:1 treble-8 nm="Tenor 1" snm="T 1"
V:2 treble-8 nm="Tenor 2" snm="T 2"
V:3 bass nm="Bass" snm="B"
V:1
 e4 e2 d2 | g2 f2 e3 e | e2 e2 d2 e2 | d2 c2 B3 B | B4 z4 | e4 f4 | f4 g2 e2 | d3 d d4- | %8
w: Je- su, Rex|ad- mi- ra- bi-|lis, et tri- um-|pha- tor no- bi-|lis,|dul- ce-|do in- ef-|fa- bi- lis,|
w: Quan- do cor|no- strum vi- si-|tas, nunc lu- cet|e- i ve- ri-|tas,|mun- di|vi- le- scit|va- ni- tas,|
w: Je- sum o-|mnes a- gno- sci-|te, Je- sum ar-|den- ter quae- ri-|tas,|a- mo-|rem e- jus|po- sci- te,|
 d4 z2 g2 | g2 f2 e3 e | e2 d2 c2 c2 | e2 d2 c3 c | c2 B2 !fermata!A4 |] %13
w: _ to-|tus de si de-|ra- bi- lis, to-|tus de- si- de|ra- bi- lis.|
w: _ et|in- tus fer- vet|ca- ri- tas, et|in- tus fer- vet|ca- ri- tas.|
w: _ quae-|ren- do in ar-|des- ci- te, quae-|ren- do in ar-|des- ci- te.|
V:2
 c4 B2 A2 | B2 B2 c3 c | c2 c2 B2 c2 | B2 A2 ^G3 G | ^G4 z4 | B4 ^d4 | ^d4 e2 c2 | B3 B B2 B2 | %8
w: Je- su, Rex|ad- mi- ra- bi-|lis, et tri- um-|pha- tor no- bi-|lis,|dul- ce-|do in- ef-|fa- bi- lis, to-|
w: Quan- do cor|no- strum vi- si-|tas, nunc lu- cet|e- i ve- ri-|tas,|mun- di|ve- le- scit|va- ni- tas, et|
w: Je- sum o-|mnes a- gno- sci-|te, Je- sum ar-|den- ter quae- ri-|tas,|a- mo-|rem e- jus|po- sci- te, quae-|
 B2 A2 B3 B | B2 B2 c4 | z4 e4 | c2 B2 A3 A | A2 ^G2 !fermata!A4 |] %13
w: tus de- si- de-|ra- bi- lis,|to-|tus de- si- de-|ra- bi- lis.|
w: in- tus fer- vet|ca- ri- tas,|et|in- tus fer- vet|ca- ri- tas.|
w: ren- do in ar-|de- sci- te,|quae-|ren- do in ar-|de- sci- te.|
V:3
 A,4 G,2 F,2 | E,2 D,2 C,3 C, | C,2 C,2 G,2 C,2 | D,2 D,2 E,3 E, | E,4 z4 | E,4 B,,4 | %6
w: Je- su, Rex|ad- mi- ra- bi-|lis, et tri- um-|pha- tor no- bi-|lis,|dul- ce-|
w: Quan- do cor|no- strum vi- si-|tas, nunc lu- cet|e- i ve- ri-|tas,|mun- di|
w: Je- sum o-|mnes a- gno- sci-|te, Je- sum ar-|den- ter quae- ri-|tas,|a- mo-|
 B,,4 E,2 E,2 | G,3 G,, G,,2 G,2 | G,2 F,2 E,3 E, | E,2 D,2 C,2 C,2 | C,2 B,,2 A,,4 | %11
w: do in- ef-|fa- bi- lis, to-|tus de si- de-|ra- bi- lis, to-|tus de- si|
w: ve- le- scit|va- ni- tas, et|in- tus fer- vet|ca- ri- tas, et|in- tus fer-|
w: rem e- jus|po- sci- te, quae-|ren- do in ar-|de- sci- te, quae-|ren- do in|
 G,,4 A,,B,,C,D, | E,3 E, !fermata!A,,4 |] %13
w: de- ra- * * *|* bi- lis.|
w: vet ca- * * *|* ri- tas.|
w: ar- de- * * *|* sci- te.|

